!!!ONB: MCCC : IJH0413_04 : Extracted Monophonic Melody
!!!COM: Haydn, Joseph
!!!OPR: String Quartet in B-flat major
!!!OMV: 4
!!!SCT: Hob.III:69 ; Op.71 No.1
!!!ODT: 1793///
**kern
*thru
*k[b-e-]
*B-:
*clefF
*M2/4
8f
=1
4b-
8cc
16b-
16cc
=2
4.b-
8cc
=3
4dd
8ee-
16dd
16ee-
=4
4.ff
16ddd
16ccc
=5
16bb-
16aa
16gg
16ff
16ee-
16dd
16cc
16b-
=6
8a
8a
8a
16eee-
16ddd
=7
16ccc
16bb-
16aa
16gg
16ff
16ee-
16dd
16cc
=8
8b-
8b-
8b-
8ff
=9
8ff
8ff
8ff
8ff
=10
4ff
8ee-
8dd
=11
8cc
8cc
16cc
16b-
16cc
16dd
=12
4b-
8r
16ddd
16ccc
=13
16bb-
16aa
16gg
16ff
16ee-
16dd
16cc
16b-
=14
8a
8a
8a
16eee-
16ddd
=15
16ccc
16bb-
16aa
16gg
16ff
16ee-
16dd
16cc
=16
8b
8b
8b
16fff
16eee-
=17
16ddd
16ccc
16bb
16aa-
16gg
16ff
16ee-
16dd
=18
8ee-
4ccc
8aa
=19
16bb-
16ff
16dd
16ff
16ee-
16cc
16a
16cc
=20
4.b-
8cc
=21
8b-
8cc
8b-
8cc
=22
8b-
8dd
8ff
16ee-
16dd
=23
4.cc
8b
=24
8cc
8b
8cc
8b
=25
8cc
8ee-
8gg
16ff
16ee-
=26
4.dd
8ee-
=27
8dd
8ee-
8dd
8ee-
=28
16dd
16ee-
16ff
16gg
8aa-
16gg
16ff
=29
8ff#
4gg
8ff[
=30
8ff]
4ee-
8dd[
=31
8dd]
4cc
8b-
=32
16a
16cc
16b-
16a
16b-
16cc
16dd
16ee
=33
4ff
8gg
16ff
16gg
=34
4aa
8bb-
16aa
16bb-
=35
8aa
4ccc
8ee
=36
16ff
16gg
16aa
16bb-
8ccc
8ee
=37
8ff
4aa
8cc#
=38
8dd
4ff
8a
=39
8b-
4dd
8cc
=40
8b-
8a
8g
8f
=41
8e
8cc
8cc
16b
16cc
=42
8b
8ff
8ff
16ee
16ff
=43
8ee
8ccc
8ccc
16bb
16ccc
=44
8bb
8ff
8ff
16ee
16ff
=45
8ee
16gg
16aa
8bb-
8aa
=46
8gg
8ff
8ee
8dd
=47
2cc
=48
2b-
=49
8a
4a
8b-
=50
8r
4g
8a[
=51
8a]
8g
8f
8e
=52
4ee-
8dd
8r
=53
4dd-
4cc[
=54
8cc]
8b-
8a
8g
=55
16f
16ff
16cc
16a
16f
16cc
16a
16f
=56
16e
16bb-
16gg
16ee
16cc
16b-
16g
16e
=57
16f
16ff
16cc
16a
16f
16cc
16a
16f
=58
16e
16bb-
16gg
16ee
16cc
16b-
16g
16e
=59
16f
16cc
16b-
16a
16g
16b-
16a
16g
=60
4a
8r
16dd
16cc
=61
16a
16cc
16b-
16a
16g
16b-
16a
16g
=62
8a
4cc
8cc
=63
16cc
16a
16b-
16b-
16b-
16g
16a
16a
=64
16a
16d
16g
16g
16g
16e
16f
16f
=65
16e
16f
16g
16a
16b-
16cc
16dd
16ee
=66
4.ff
16gg
16ee
=67
16ff
16aa
16gg
16ee
16ff
16aa
16gg
16ee
=68
8ff
4ff
16gg
16ee
=69
16ff
16aa
16gg
16ee
16ff
16aa
16gg
16ee
=70
16ff
16gg
16aa
16bb-
16ccc
16ddd
16eee
16fff
=71
8ddd
8ddd
8r
8bb-
=72
8r
8aa
8r
8gg
=73
8ccc
8r
8bb-
8r
=74
8aa
8r
8gg
8r
=75
24ccc
24ccc
24ccc
8r
24bb-
24bb-
24bb-
8r
=76
24aa
24aa
24aa
8r
24gg
24gg
24gg
8r
=77
2ff[
=78
4.ff]
8ff#
=79
8gg
8aa
8bb-
8ddd
=80
8ccc
8bb-
8aa
8gg
=81
2ff[
=82
4.ff]
8ff#
=83
8gg
8aa
8bb-
8ddd
=84
8ccc
8bb-
8aa
8gg
=85
4ff
8r
8cc
=86
16b
16cc
16dd
16cc
16b-
16a
16b-
16g
=87
8f
4f
16a
16f
=88
16e
16f
16g
16e
16c
16d
16e
16c
=89
8f
4f
8ccc
=90
16bb
16ccc
16ddd
16ccc
16bb-
16aa
16bb-
16gg
=91
8ff
4ff
16aa
16ff
=92
16ee
16ff
16gg
16ee
16cc
16dd
16ee
16cc
=93
16ff
16gg
16aa
16ff
16cc
16dd
16ee
16cc
=94
16ff
16gg
16aa
16ff
16cc
16dd
16ee
16cc
=95
8ff
8r
8aa
8r
=96
4ff
4r
=97
2r
=98
2r
=99
4.r
8aa
=100
16aa
16bb-
16ccc
16bb-
16aa-
16gg
16aa-
16ff
=101
4.gg
16g
16dd
=102
16dd
16ee-
16ff
16dd
16dd
16cc
16dd
16b
=103
16b
16cc
16dd
16cc
16b-
16a
16b-
16g
=104
4a
8r
8dd
=105
16ff#
16gg
16aa
16gg
16aa
16bb-
16ccc
16bb-
=106
16ccc
16ddd
16eee-
16ddd
8eee-
8eee-
=107
4.eee-
8ddd
=108
16ccc
16ddd
16eee-
16ddd
8eee-
8eee-
=109
4.eee-
8ddd
=110
16ccc
16ddd
16eee-
16ddd
8eee-
8eee-
=111
8ccc
8ccc
8aa
8aa
=112
8ff#
8ff#
8ee-
8ee-
=113
8cc
8cc
8a
8a
=114
2f#
=115
2g
=116
8b-
8dd
8r
8cc
=117
8r
8b-
8r
8a
=118
24dd
24dd
24dd
8r
24cc
24cc
24cc
8r
=119
24b-
24b-
24b-
8r
24a
24a
24a
8r
=120
2g[
=121
4.g]
8a-
=122
8g
8b
8cc
8dd
=123
8ee-
8dd
8cc
8b-
=124
8a
8g
8f
8a
=125
4b-
8cc
16b-
16cc
=126
4.b-
8cc
=127
4dd
8ee-
16dd
16ee-
=128
4.ff
16ddd
16ccc
=129
16bb-
16aa
16gg
16ff
16ee-
16dd
16cc
16b-
=130
8a
8a
8a
16eee-
16ddd
=131
16ccc
16bb-
16aa
16gg
16ff
16ee-
16dd
16cc
=132
8b-
8b-
8b-
8ff
=133
8ff
8ff
8ff
8ff
=134
4ff
8ee-
8dd
=135
8cc
8cc
16cc
16b-
16cc
16dd
=136
4b-
4r
=137
8r
8dd
8dd
8dd
=138
16ee-
16ff
16ee-
16dd
8ee-
8r
=139
8r
8ee-
8ee-
8ee-
=140
16ff
16gg
16ff
16ee-
8ff
16ccc
16bb-
=141
16aa-
16gg
16ff
16ee-
16dd
16cc
16b-
16a-
=142
8g
4gg
8ff[
=143
8ff]
4ee-
8dd[
=144
8dd]
4cc
8b-
=145
8a
16gg
16ff
8ff
8ee-
=146
8dd
8ff
8a
16g
16a
=147
8b-
16gg
16ff
8ff
8ff
=148
2ff[
=149
8ff]
16ccc
16bb-
8bb-
8bb-
=150
8bb-
16ccc
16bb-
4bb-[
=151
8bb-]
16ccc
16bb-
4bb-[
=152
16bb-]
16ddd
16eee-
16ddd
16eee-
16ddd
16ccc
16bb-
=153
16aa
16ccc
16eee-
16ccc
16eee-
16ccc
16aa
16ccc
=154
16aa
16ccc
16eee-
16ccc
16aa
16ccc
16eee-
16ccc
=155
16aa
16bb-
16ccc
16bb-
16aa
16gg
16ff
16ee-
=156
16dd
16aa
16bb-
16aa
16bb-
16ff#
16gg
16ff#
=157
16gg
16dd
16ee-
16dd
16ee-
16b
16cc
16b
=158
16cc
16g
16a-
16g
16a-
16f#
16g
16f#
=159
16g
16d
16e-
16d
16e-
16B
16c
16B
=160
8c
8e-
8g
8b
=161
8cc
8ee-
8ff#
8gg
=162
8f
8ff
8r
8ee-
=163
8r
8dd
8r
8cc
=164
2bb-[
=165
4.bb-]
8aa-
=166
8gg
8ff#
8gg
8ff
=167
8ee-
4ccc
8ccc[
=168
8ccc]
4ccc
8bb-
=169
4.aa
8ccc
=170
4.aa
8ccc
=171
4.aa
8ccc
=172
4.aa
8ccc
=173
8aa
4.r
=174
2r
=175
4.r
8aa-[
=176
8aa-]
4aa-
8aa-
=177
16gg
16aa-
16bb-
16aa-
16gg-
16ff
16gg-
16ee-
=178
8dd-
4dd-
16ff
16dd-
=179
16cc
16dd-
16ee-
16cc
16a-
16b-
16cc
16a-
=180
8dd-
4dd-
8aa-
=181
16gg
16aa-
16bb-
16aa-
16gg-
16ff
16gg-
16ee-
=182
8dd-
4dd-
8ff
=183
16ee
16ff
16gg-
16ff
16ee-
16dd-
16ee-
16cc
=184
8b-
4b-
16dd-
16cc
=185
16a
16b-
16cc
16b-
8dd-
8e
=186
16f
16a
16g
16b-
16a
16f
16g
16e
=187
16f
16a
16g
16b-
16a
16f
16g
16e
=188
16f
16a
16g
16b-
16a
16cc
16b-
16dd
=189
16cc
16ee-
16dd
16ff
16ee-
16gg
16ff
16ee-
=190
16dd
16ff
16ee-
16dd
16cc
16ee-
16dd
16cc
=191
4dd
8r
16gg
16ff
=192
16dd
16ff
16ee-
16dd
16cc
16ee-
16dd
16cc
=193
8dd
4ff
8ff
=194
16ff
16dd
16ee-
16ee-
16ee-
16cc
16dd
16dd
=195
16dd
16g
16cc
16cc
16cc
16a
16b-
16b-
=196
16a
16b-
16cc
16dd
16ee-
16ff
16gg
16aa
=197
4.bb-
16ccc
16aa
=198
16bb-
16ddd
16ccc
16aa
16bb-
16ddd
16ccc
16aa
=199
8bb-
4bb-
16ccc
16aa
=200
16bb-
16ddd
16ccc
16aa
16bb-
16ddd
16ccc
16aa
=201
16bb-
16ccc
16ddd
16eee-
16fff
16ggg
16aaa
16bbb-
=202
8bbb-
8ggg
8r
8eee-
=203
8r
8ddd
8r
8ccc
=204
8fff
8r
8eee-
8r
=205
8ddd
8r
8ccc
8r
=206
24bb-
24bb-
24bb-
8r
24gg
24gg
24gg
8r
=207
24ff
24ff
24ff
8r
24ee
24ee
24ee
8r
=208
2ff[
=209
8ff]
8ee-
8dd
8cc
=210
8b
4dd
8ee-
=211
8r
4cc
8dd[
=212
8dd]
8cc
8b-
8a
=213
4aa-
8gg
8r
=214
4gg-
4ff[
=215
8ff]
8ee-
8dd
8cc
=216
4b-
8r
8b-
=217
16a
16b-
16cc
16b-
16a
16f
16g
16a
=218
8b-
4b-
16dd
16b-
=219
16a
16b-
16cc
16b-
16a
16f
16g
16a
=220
4.b-
8bb-
=221
16aa
16bb-
16ccc
16bb-
16aa
16ff
16gg
16aa
=222
8bb-
4bb-
16ddd
16bb-
=223
16aa
16bb-
16ccc
16bb-
16aa
16ff
16gg
16aa
=224
4.bb-
8ff
=225
2gg-
=226
8ff
8bb-
8ddd
8b-
=227
16a
16b-
16cc
16b-
16a
16ee-
16cc
16a
=228
8b-
8dd
8ff
8f
=229
2g-
=230
8f
8b-
8dd
8b-
=231
2a
=232
2b-
=233
2a
=234
8b-
8r
8dd
8r
=235
4b-
4r
==
*-
